assets/svg/networks/wallet_tezos.svg

<svg width="36" height="36" viewBox="0 0 36 36" fill="none" xmlns="http://www.w3.org/2000/svg">
<g clip-path="url(#clip0_52314_201706)">
<rect width="36" height="36" rx="10" fill="#2C7DF7"/>
<g clip-path="url(#clip1_52314_201706)">
<path d="M20.4232 30C18.7048 30 17.4506 29.5875 16.6605 28.7625C15.9286 28.0641 15.5039 27.1054 15.4792 26.0958C15.4703 25.7891 15.5416 25.4854 15.6861 25.2145C15.8209 24.9804 16.0157 24.7861 16.2504 24.6516C16.5233 24.516 16.8241 24.4454 17.129 24.4454C17.4339 24.4454 17.7347 24.516 18.0076 24.6516C18.2419 24.7856 18.4357 24.98 18.5687 25.2145C18.7174 25.4841 18.7914 25.7883 18.783 26.0958C18.7984 26.4631 18.6927 26.8253 18.4821 27.1271C18.3065 27.3734 18.0556 27.5564 17.7669 27.6487C18.0492 28.0069 18.4486 28.2551 18.8956 28.35C19.3958 28.4947 19.9137 28.5692 20.4345 28.5711C21.124 28.5771 21.7993 28.3759 22.3723 27.9937C22.9667 27.5751 23.41 26.9768 23.6364 26.2875C23.9235 25.467 24.0636 24.6026 24.0503 23.7338C24.0735 22.828 23.9201 21.9263 23.5988 21.0787C23.3571 20.4008 22.8983 19.821 22.2932 19.4287C21.7308 19.074 21.0779 18.8878 20.4123 18.8925C19.8323 18.9415 19.273 19.1307 18.783 19.4438L17.5749 20.0475V19.4438L23.0043 12.1846H15.4792V19.7175C15.4579 20.2611 15.6022 20.7984 15.8931 21.2588C16.0338 21.4594 16.2241 21.6203 16.4456 21.7261C16.6671 21.8319 16.9122 21.8788 17.1573 21.8624C17.61 21.8533 18.0479 21.6995 18.4063 21.4237C18.8127 21.1269 19.1662 20.7644 19.4524 20.3512C19.4781 20.2787 19.5256 20.2159 19.5884 20.1713C19.6388 20.1279 19.7032 20.1039 19.7698 20.1038C19.9006 20.1157 20.0243 20.1681 20.1235 20.2537C20.2493 20.3938 20.3178 20.5758 20.3154 20.7637C20.3008 20.89 20.2782 21.0153 20.2477 21.1387C19.9803 21.7835 19.5322 22.338 18.957 22.7357C18.4228 23.096 17.7917 23.287 17.1467 23.2838C15.5174 23.2838 14.3887 22.9638 13.7606 22.3238C13.4377 21.97 13.1889 21.5557 13.0287 21.1049C12.8685 20.6542 12.8001 20.1761 12.8275 19.6987V12.1846H9V10.7849H12.8453V7.59367L11.9649 6.71563V6H14.5196L15.4792 6.49507V10.7849L25.4197 10.7548L26.4094 11.7448L20.314 17.8493C20.6823 17.7017 21.0701 17.6083 21.4653 17.5718C22.2475 17.606 23.0107 17.8231 23.6931 18.2057C24.4834 18.58 25.1494 19.1724 25.6122 19.9125C26.0268 20.539 26.3203 21.2372 26.4776 21.9712C26.6068 22.5502 26.6762 23.1409 26.6845 23.7339C26.6885 24.8658 26.4311 25.9834 25.932 27.0001C25.4587 27.9846 24.6622 28.7785 23.6744 29.2502C22.6632 29.7468 21.5504 30.0034 20.4232 30Z" fill="white"/>
</g>
</g>
<defs>
<clipPath id="clip0_52314_201706">
<rect width="36" height="36" fill="white"/>
</clipPath>
<clipPath id="clip1_52314_201706">
<rect width="17.6842" height="24" fill="white" transform="translate(9 6)"/>
</clipPath>
</defs>
</svg>

<svg xmlns="http://www.w3.org/2000/svg" width="36" height="36" fill="none"><g clip-path="url(#a)"><rect width="36" height="36" fill="#2C7DF7" rx="10"/><g clip-path="url(#b)"><path fill="#fff" d="M20.423 30q-2.577 0-3.762-1.238a3.82 3.82 0 0 1-1.182-2.666c-.009-.307.063-.61.207-.881.135-.235.33-.429.564-.563a1.98 1.98 0 0 1 1.758 0c.234.134.428.328.56.563.15.27.223.573.215.88.015.368-.09.73-.3 1.032-.177.246-.427.43-.716.522.282.358.682.606 1.129.701.5.145 1.018.22 1.538.221a3.44 3.44 0 0 0 1.938-.577 3.38 3.38 0 0 0 1.264-1.706 7.4 7.4 0 0 0 .414-2.554 7 7 0 0 0-.451-2.655 3.28 3.28 0 0 0-1.306-1.65 3.5 3.5 0 0 0-1.88-.537c-.58.05-1.14.239-1.63.552l-1.208.604v-.604l5.43-7.26h-7.526v7.534c-.021.543.123 1.08.414 1.54a1.43 1.43 0 0 0 1.264.604c.453-.009.89-.162 1.25-.438.406-.297.76-.66 1.045-1.073a.37.37 0 0 1 .136-.18.28.28 0 0 1 .182-.067c.13.012.254.064.354.15.125.14.194.322.191.51a3 3 0 0 1-.067.375 3.64 3.64 0 0 1-1.291 1.597 3.2 3.2 0 0 1-1.81.548q-2.444 0-3.386-.96a3.6 3.6 0 0 1-.933-2.625v-7.514H9v-1.4h3.845V7.594l-.88-.878V6h2.555l.96.495v4.29l9.94-.03.99.99-6.096 6.104a4.1 4.1 0 0 1 1.151-.277 5 5 0 0 1 2.228.634 4.57 4.57 0 0 1 1.92 1.707c.414.626.707 1.324.865 2.058q.194.872.206 1.763A7.35 7.35 0 0 1 25.933 27a4.8 4.8 0 0 1-2.258 2.25 7.3 7.3 0 0 1-3.25.75"/></g></g><defs><clipPath id="a"><path fill="#fff" d="M0 0h36v36H0z"/></clipPath><clipPath id="b"><path fill="#fff" d="M9 6h17.684v24H9z"/></clipPath></defs></svg>
